; generated by PrusaSlicer 2.7.1+win64 on 2024-09-09 at 23:51:03 UTC


;
;
; 

; external perimeters extrusion width = 0.45mm
; perimeters extrusion width = 0.45mm
; infill extrusion width = 0.45mm
; solid infill extrusion width = 0.45mm
; top infill extrusion width = 0.40mm
; support material extrusion width = 0.35mm
; first layer extrusion width = 0.42mm

M73 P0 R2
M73 Q0 S2
M201 X1000 Y1000 Z200 E5000 ; sets maximum accelerations, mm/sec^2
M203 X200 Y200 Z12 E120 ; sets maximum feedrates, mm / sec
M204 S1250 T1250 ; sets acceleration (S) and retract acceleration (R), mm/sec^2
M205 X8.00 Y8.00 Z0.40 E4.50 ; sets the jerk limits, mm/sec
M205 S0 T0 ; sets the minimum extruding and travel feed rate, mm/sec

; printing object 599-24-season-StV3-P-1004 id:0 copy 0
; stop printing object 599-24-season-StV3-P-1004 id:0 copy 0

;TYPE:Custom
M862.3 P "MK3S" ; printer model check
M862.1 P0.4 ; nozzle diameter check
M115 U3.13.1 ; tell printer latest fw version
G90 ; use absolute coordinates
M83 ; extruder relative mode
M104 S230 ; set extruder temp
M140 S85 ; set bed temp
M190 S85 ; wait for bed temp
M109 S230 ; wait for extruder temp
G28 W ; home all without mesh bed level
G80 ; mesh bed leveling

G1 Z0.2 F720
G1 Y-3 F1000 ; go outside print area
G92 E0
G1 X60 E9 F1000 ; intro line
G1 X100 E12.5 F1000 ; intro line
M73 P2 R2
M73 Q2 S2

G92 E0
M221 S95

; Don't change E values below. Excessive value can damage the printer.

M907 E538 ; set extruder motor current
G21 ; set units to millimeters
G90 ; use absolute coordinates
M83 ; use relative distances for extrusion
M900 K0.08 ; Filament gcode LA 1.5
M900 K45 ; Filament gcode LA 1.0

M107
;LAYER_CHANGE
;Z:0.2
;HEIGHT:0.2
;BEFORE_LAYER_CHANGE
G92 E0.0
;0.2


G1 E-1 F2100
M73 P3 R2
M73 Q3 S2
G1 Z.2 F720
;AFTER_LAYER_CHANGE
;0.2
G1 X115.686 Y97.003 F10800
G1 Z.2 F720
M73 P4 R2
M73 Q4 S2
G1 E1 F2100
M204 S800
;TYPE:Skirt/Brim
;WIDTH:0.42
G1 F1200
G1 X116.558 Y96.087 E.03965
G1 X117.519 Y95.267 E.03961
G1 X118.559 Y94.549 E.03962
G1 X119.668 Y93.942 E.03964
G1 X120.833 Y93.452 E.03963
G1 X122.042 Y93.085 E.03962
G1 X123.283 Y92.844 E.03964
G1 X124.542 Y92.732 E.03963
G1 X125.744 Y92.749 E.03769
G1 X127.34 Y92.949 E.05043
G1 X128.567 Y93.253 E.03963
G1 X129.756 Y93.682 E.03963
G1 X130.894 Y94.231 E.03962
G1 X131.97 Y94.894 E.03963
G1 X132.972 Y95.665 E.03964
G1 X133.89 Y96.534 E.03963
G1 X134.713 Y97.493 E.03962
G1 X135.434 Y98.531 E.03963
G1 X136.044 Y99.639 E.03966
G1 X136.536 Y100.802 E.03959
G1 X136.907 Y102.011 E.03965
G1 X137.151 Y103.251 E.03962
M73 Q5 S2
G1 X137.266 Y104.439 E.03742
G1 X137.266 Y105.561 E.03518
G1 X137.151 Y106.749 E.03742
G1 X136.907 Y107.989 E.03962
G1 X136.536 Y109.198 E.03965
M73 P5 R2
G1 X136.044 Y110.361 E.03959
G1 X135.434 Y111.469 E.03966
G1 X134.713 Y112.507 E.03963
G1 X133.89 Y113.466 E.03962
G1 X132.972 Y114.335 E.03963
G1 X131.97 Y115.106 E.03964
G1 X130.894 Y115.769 E.03963
G1 X129.493 Y116.425 E.0485
G1 X128.295 Y116.826 E.03961
G1 X127.061 Y117.102 E.03965
G1 X125.806 Y117.25 E.03962
G1 X124.542 Y117.268 E.03964
G1 X123.564 Y117.192 E.03076
G1 X122.318 Y116.98 E.03963
G1 X121.101 Y116.641 E.03961
G1 X119.925 Y116.178 E.03963
G1 X118.802 Y115.597 E.03964
G1 X117.745 Y114.904 E.03963
G1 X116.766 Y114.105 E.03962
G1 X115.873 Y113.21 E.03964
G1 X115.077 Y112.228 E.03963
G1 X114.387 Y111.17 E.0396
G1 X113.809 Y110.046 E.03963
M73 Q6 S2
G1 X113.458 Y109.157 E.02997
G1 X112.955 Y107.372 E.05815
G1 X112.775 Y106.121 E.03963
G1 X112.724 Y104.858 E.03963
M73 P6 R2
G1 X112.775 Y103.879 E.03074
G1 X112.955 Y102.628 E.03963
G1 X113.263 Y101.402 E.03963
G1 X113.695 Y100.214 E.03964
G1 X114.247 Y99.077 E.03963
G1 X114.913 Y98.003 E.03962
G1 X115.649 Y97.05 E.03775
M204 S1000
G1 X115.947 Y97.281 F10800
M204 S800
G1 F1200
G1 X115.982 Y97.237 E.00176
G1 X116.828 Y96.351 E.03841
G1 X117.76 Y95.556 E.03841
G1 X118.77 Y94.862 E.03842
G1 X119.845 Y94.275 E.0384
G1 X120.975 Y93.802 E.03841
G1 X122.148 Y93.447 E.03843
G1 X123.351 Y93.215 E.03841
G1 X124.571 Y93.108 E.0384
G1 X125.735 Y93.126 E.0365
G1 X127.254 Y93.316 E.048
G1 X128.443 Y93.609 E.0384
G1 X129.596 Y94.024 E.03842
G1 X130.7 Y94.555 E.03841
G1 X131.744 Y95.196 E.03841
G1 X132.716 Y95.941 E.0384
G1 X133.607 Y96.783 E.03844
M73 Q7 S2
G1 X134.406 Y97.711 E.0384
G1 X135.106 Y98.717 E.03843
G1 X135.698 Y99.79 E.03842
G1 X136.177 Y100.917 E.0384
M73 P7 R2
G1 X136.538 Y102.088 E.03842
G1 X136.776 Y103.29 E.03842
G1 X136.889 Y104.448 E.03648
G1 X136.889 Y105.552 E.03462
G1 X136.776 Y106.71 E.03648
G1 X136.538 Y107.912 E.03842
G1 X136.177 Y109.083 E.03842
G1 X135.698 Y110.21 E.0384
G1 X135.106 Y111.283 E.03842
G1 X134.406 Y112.289 E.03843
G1 X133.607 Y113.217 E.0384
G1 X132.716 Y114.059 E.03844
G1 X131.744 Y114.804 E.0384
G1 X130.7 Y115.445 E.03841
G1 X129.596 Y115.976 E.03841
G1 X128.443 Y116.391 E.03842
G1 X127.254 Y116.684 E.0384
G1 X126.04 Y116.854 E.03844
G1 X124.571 Y116.892 E.04607
G1 X123.351 Y116.785 E.0384
G1 X122.386 Y116.609 E.03076
G1 X121.206 Y116.279 E.03842
G1 X120.067 Y115.829 E.0384
G1 X118.979 Y115.264 E.03844
G1 X117.956 Y114.591 E.03839
M73 Q8 S2
G1 X117.007 Y113.816 E.03842
G1 X116.143 Y112.947 E.03842
G1 X115.373 Y111.994 E.03842
G1 X114.705 Y110.967 E.03841
M73 P8 R2
G1 X114.048 Y109.653 E.04606
G1 X113.627 Y108.502 E.03843
G1 X113.328 Y107.314 E.03841
G1 X113.152 Y106.102 E.0384
G1 X113.101 Y104.878 E.03841
G1 X113.177 Y103.655 E.03842
G1 X113.378 Y102.446 E.03843
G1 X113.627 Y101.498 E.03073
G1 X114.048 Y100.347 E.03843
G1 X114.584 Y99.246 E.03839
G1 X115.231 Y98.205 E.03843
G1 X115.91 Y97.329 E.03475
M204 S1000
; printing object 599-24-season-StV3-P-1004 id:0 copy 0
;WIPE_START
G1 F8640
G1 X115.947 Y97.281 E-.01399
G1 X115.982 Y97.237 E-.01298
G1 X116.828 Y96.351 E-.28286
G1 X117.76 Y95.556 E-.28286
G1 X118.77 Y94.862 E-.28296
G1 X119.243 Y94.604 E-.12435
;WIPE_END
G1 Z.4 F720
G1 X123.9 Y96.334 F10800
G1 Z.2 F720
G1 E1 F2100
M204 S800
;TYPE:Perimeter
;WIDTH:0.445221
G1 F1200
G1 X125.025 Y96.285 E.03767
G1 X125.674 Y96.289 E.02171
;WIDTH:0.419999
G1 X126.566 Y96.405 E.0282
G1 X127.442 Y96.611 E.02822
G1 X128.291 Y96.907 E.02819
G1 X129.106 Y97.288 E.02821
G1 X129.877 Y97.751 E.0282
M73 Q9 S2
G1 X130.597 Y98.291 E.02822
G1 X131.257 Y98.902 E.0282
G1 X131.851 Y99.578 E.02822
G1 X132.333 Y100.256 E.02608
;WIDTH:0.444079
G1 X132.82 Y101.108 E.03273
;WIDTH:0.422023
G1 X133.183 Y101.941 E.02864
M73 P9 R2
;WIDTH:0.419999
G1 X133.455 Y102.805 E.0284
G1 X133.636 Y103.691 E.02835
G1 X133.726 Y104.591 E.02836
G1 X133.722 Y105.484 E.028
G1 X133.626 Y106.379 E.02822
G1 X133.439 Y107.255 E.02809
G1 X133.166 Y108.104 E.02796
G1 X132.763 Y108.999 E.03078
;WIDTH:0.428032
G1 X132.33 Y109.742 E.02754
G1 X131.851 Y110.422 E.02664
;WIDTH:0.419999
G1 X131.257 Y111.098 E.02822
G1 X130.597 Y111.709 E.0282
G1 X129.877 Y112.249 E.02822
G1 X129.106 Y112.712 E.0282
G1 X128.291 Y113.093 E.02821
G1 X127.442 Y113.389 E.02819
G1 X126.566 Y113.595 E.02822
G1 X125.674 Y113.711 E.0282
;WIDTH:0.451126
G1 X124.565 Y113.707 E.03764
;WIDTH:0.441531
G1 X123.857 Y113.661 E.02352
;WIDTH:0.419999
G1 X122.965 Y113.495 E.02845
G1 X122.098 Y113.239 E.02834
G1 X121.311 Y112.915 E.02669
G1 X120.468 Y112.467 E.02993
G1 X119.728 Y111.965 E.02804
G1 X119.042 Y111.388 E.02811
G1 X118.421 Y110.747 E.02798
G1 X117.869 Y110.047 E.02795
;WIDTH:0.453425
G1 X117.239 Y108.984 E.04218
;WIDTH:0.424102
G1 X116.987 Y108.48 E.01786
;WIDTH:0.419999
G1 X116.67 Y107.63 E.02844
G1 X116.443 Y106.754 E.02837
G1 X116.308 Y105.862 E.02829
M73 Q10 S2
G1 X116.265 Y104.962 E.02825
G1 X116.315 Y104.065 E.02817
G1 X116.456 Y103.18 E.0281
G1 X116.687 Y102.317 E.02801
G1 X117.003 Y101.483 E.02796
M73 P10 R2
;WIDTH:0.447502
G1 X117.471 Y100.605 E.03347
G1 X117.891 Y99.923 E.02694
;WIDTH:0.419999
G1 X118.456 Y99.213 E.02845
G1 X119.09 Y98.567 E.02838
G1 X119.786 Y97.992 E.02831
G1 X120.536 Y97.492 E.02826
G1 X121.331 Y97.073 E.02818
G1 X122.162 Y96.739 E.02808
G1 X123.022 Y96.492 E.02805
G1 X123.841 Y96.344 E.0261
M204 S1000
G1 X123.83 Y95.961 F10800
M204 S800
;TYPE:External perimeter
G1 F1200
G1 X124.765 Y95.889 E.0294
G1 X125.703 Y95.913 E.02942
G1 X126.634 Y96.033 E.02943
G1 X127.547 Y96.249 E.02942
G1 X128.434 Y96.557 E.02944
G1 X129.284 Y96.955 E.02943
G1 X130.088 Y97.438 E.02941
G1 X130.839 Y98.001 E.02943
G1 X131.527 Y98.639 E.02942
G1 X132.147 Y99.343 E.02941
G1 X132.64 Y100.038 E.02672
G1 X133.167 Y100.957 E.03322
G1 X133.542 Y101.826 E.02968
G1 X133.824 Y102.728 E.02963
G1 X134.012 Y103.652 E.02956
G1 X134.103 Y104.591 E.02958
G1 X134.103 Y105.466 E.02743
G1 X134.006 Y106.403 E.02954
G1 X133.814 Y107.321 E.02941
G1 X133.529 Y108.215 E.02942
G1 X133.153 Y109.075 E.02943
G1 X132.691 Y109.892 E.02943
M73 Q11 S2
G1 X132.147 Y110.657 E.02943
G1 X131.527 Y111.361 E.02941
G1 X130.839 Y111.999 E.02942
G1 X130.088 Y112.562 E.02943
G1 X129.284 Y113.045 E.02941
M73 P11 R2
G1 X128.434 Y113.443 E.02943
G1 X127.547 Y113.751 E.02944
G1 X126.634 Y113.967 E.02942
G1 X125.703 Y114.087 E.02943
G1 X124.765 Y114.111 E.02942
G1 X123.83 Y114.039 E.0294
G1 X122.907 Y113.871 E.02942
G1 X122.006 Y113.609 E.02942
G1 X121.183 Y113.274 E.02786
G1 X120.307 Y112.814 E.03102
G1 X119.529 Y112.29 E.02941
G1 X118.809 Y111.689 E.02941
G1 X118.154 Y111.017 E.02942
G1 X117.571 Y110.281 E.02944
G1 X117.068 Y109.489 E.02942
G1 X116.648 Y108.65 E.02942
G1 X116.317 Y107.772 E.02942
G1 X116.078 Y106.864 E.02944
G1 X115.934 Y105.937 E.02941
G1 X115.886 Y105 E.02942
G1 X115.934 Y104.063 E.02942
G1 X116.078 Y103.136 E.02941
G1 X116.317 Y102.228 E.02944
G1 X116.648 Y101.35 E.02942
G1 X117.068 Y100.511 E.02942
G1 X117.571 Y99.719 E.02942
G1 X118.154 Y98.983 E.02944
G1 X118.809 Y98.311 E.02942
G1 X119.529 Y97.71 E.02941
G1 X120.308 Y97.186 E.02944
G1 X121.136 Y96.745 E.02941
G1 X122.006 Y96.391 E.02945
M73 Q12 S2
G1 X122.907 Y96.129 E.02942
G1 X123.771 Y95.972 E.02753
M204 S1000
;WIPE_START
G1 F8640
G1 X123.83 Y95.961 E-.01386
G1 X124.765 Y95.889 E-.21653
G1 X125.703 Y95.913 E-.21666
G1 X126.634 Y96.033 E-.21675
G1 X127.547 Y96.249 E-.21663
G1 X128.036 Y96.419 E-.11957
M73 P12 R2
;WIPE_END
G1 Z.4 F720
G1 X132.072 Y109.285 F10800
G1 Z.2 F720
G1 E1 F2100
M204 S800
;TYPE:Perimeter
;WIDTH:0.444078
G1 F1200
G1 X132.016 Y109.343 E.00269
;WIDTH:0.432158
G1 X131.28 Y109.762 E.02741
;WIDTH:0.419999
G1 X125.487 Y113.107 E.20974
;WIDTH:0.451126
G1 X125.115 Y113.304 E.01429
;WIDTH:0.463488
G1 X124.839 Y113.3 E.00965
G1 X124.14 Y112.891 E.02832
;WIDTH:0.419999
G1 X118.348 Y109.547 E.2097
;WIDTH:0.453425
G1 X117.872 Y109.26 E.01897
G1 X117.773 Y109.11 E.00613
;WIDTH:0.451133
G1 X117.734 Y108.867 E.00835
;WIDTH:0.424102
G1 X117.736 Y108.344 E.01658
;WIDTH:0.419999
G1 X117.736 Y101.656 E.2097
;WIDTH:0.435031
G1 X117.728 Y101.133 E.01705
M73 Q13 S2
;WIDTH:0.451133
G1 X117.773 Y100.89 E.00839
G1 X118.018 Y100.642 E.01183
;WIDTH:0.420961
G1 X119.088 Y100.026 E.03881
;WIDTH:0.419999
G1 X124.14 Y97.109 E.18291
;WIDTH:0.42734
G1 X124.715 Y96.772 E.0213
M73 P13 R2
;WIDTH:0.451126
G1 X124.914 Y96.69 E.00731
G1 X125.015 Y96.687 E.00343
;WIDTH:0.445221
G1 X125.283 Y96.775 E.00944
;WIDTH:0.420035
G1 X131.981 Y100.643 E.24254
;WIDTH:0.444079
G1 X132.201 Y100.848 E.01003
G1 X132.269 Y101.133 E.00977
;WIDTH:0.429096
G1 X132.264 Y102.084 E.03054
;WIDTH:0.419999
G1 X132.264 Y108.867 E.21268
;WIDTH:0.444078
G1 X132.201 Y109.152 E.00974
G1 X132.114 Y109.242 E.00418
M204 S1000
G1 X131.803 Y109.024 F10800
M204 S800
;TYPE:External perimeter
;WIDTH:0.419999
G1 F1200
G1 X125.094 Y112.898 E.24291
G1 X124.948 Y112.916 E.00461
M73 Q14 S2
G1 X118.207 Y109.031 E.24395
G1 X118.13 Y108.946 E.0036
M73 P14 R2
G1 X118.113 Y108.344 E.01888
G1 X118.113 Y101.133 E.2261
G1 X118.142 Y101.031 E.00332
G1 X119.276 Y100.352 E.04144
G1 X124.906 Y97.102 E.20383
G1 X125.005 Y97.077 E.0032
G1 X125.094 Y97.102 E.0029
G1 X131.793 Y100.969 E.24253
G1 X131.876 Y101.07 E.0041
G1 X131.887 Y108.867 E.24447
G1 X131.831 Y108.971 E.0037
M73 P15 R2
M73 Q15 S2
M204 S1000
G1 X131.479 Y109.855 F10800
M204 S800
;TYPE:Solid infill
;WIDTH:0.435047
G1 F1200
G1 X131.686 Y110.063 E.00957
G1 X131.442 Y110.373 E.01286
G1 X131.251 Y110.183 E.00878
G1 X130.9 Y110.386 E.01322
G1 X131.183 Y110.668 E.01303
G1 X130.913 Y110.954 E.01282
G1 X130.548 Y110.589 E.01683
G1 X130.197 Y110.792 E.01322
G1 X130.625 Y111.22 E.01974
G1 X130.333 Y111.482 E.01279
G1 X129.845 Y110.995 E.02248
G1 X129.494 Y111.197 E.0132
G1 X130.016 Y111.72 E.02409
G1 X129.699 Y111.958 E.01292
G1 X129.142 Y111.4 E.02571
G1 X128.79 Y111.603 E.01325
G1 X129.354 Y112.167 E.02601
G1 X129.008 Y112.375 E.01316
G1 X128.439 Y111.806 E.02624
G1 X128.087 Y112.009 E.01325
G1 X128.635 Y112.557 E.02527
G1 X128.258 Y112.734 E.01358
G1 X127.736 Y112.212 E.02407
G1 X127.384 Y112.415 E.01325
G1 X127.855 Y112.886 E.02172
G1 X127.443 Y113.029 E.01422
G1 X127.033 Y112.618 E.01893
G1 X126.681 Y112.821 E.01325
G1 X127.003 Y113.144 E.01487
G1 X126.555 Y113.249 E.015
G1 X126.329 Y113.024 E.0104
G1 X125.978 Y113.227 E.01322
G1 X126.22 Y113.469 E.01116
M204 S1000
;WIPE_START
G1 F8640
G1 X125.978 Y113.227 E-.07902
G1 X126.329 Y113.024 E-.09363
G1 X126.555 Y113.249 E-.07364
G1 X127.003 Y113.144 E-.10625
G1 X126.681 Y112.821 E-.10531
G1 X127.033 Y112.618 E-.09383
G1 X127.443 Y113.029 E-.13405
G1 X127.855 Y112.886 E-.1007
G1 X127.384 Y112.415 E-.1538
G1 X127.608 Y112.286 E-.05977
;WIPE_END
G1 Z.4 F720
G1 X122.573 Y112.186 F10800
G1 Z.2 F720
M73 Q16 S2
G1 E1 F2100
M204 S800
;WIDTH:0.438941
G1 F1200
M73 P16 R2
G1 X123.668 Y113.281 E.05099
G1 X122.97 Y113.143 E.02343
G1 X121.716 Y111.889 E.0584
G1 X120.398 Y111.131 E.05007
G1 X122.168 Y112.901 E.08243
G1 X121.486 Y112.624 E.02424
G1 X121.158 Y112.452 E.0122
G1 X119.08 Y110.374 E.09677
G1 X118.138 Y109.831 E.0358
G1 X118.693 Y110.543 E.02973
G1 X120.289 Y112.142 E.07439
M204 S1000
;WIPE_START
G1 F8640
G1 X118.693 Y110.543 E-.52166
G1 X118.138 Y109.831 E-.20845
G1 X119.08 Y110.374 E-.25106
G1 X119.138 Y110.432 E-.01883
;WIPE_END
G1 Z.4 F720
G1 X117.128 Y101.627 F10800
G1 Z.2 F720
G1 E1 F2100
M204 S800
;WIDTH:0.439833
G1 F1200
G1 X117.396 Y101.895 E.01251
G1 X117.396 Y102.456 E.01851
G1 X117.106 Y102.166 E.01354
G1 X116.964 Y102.585 E.0146
G1 X117.396 Y103.017 E.02016
G1 X117.395 Y103.578 E.01851
G1 X116.848 Y103.031 E.02553
G1 X116.748 Y103.492 E.01557
M73 Q17 S2
G1 X117.395 Y104.139 E.0302
G1 X117.395 Y104.7 E.01851
G1 X116.672 Y103.977 E.03375
G1 X116.629 Y104.495 E.01715
M73 P17 R2
G1 X117.395 Y105.261 E.03575
G1 X117.394 Y105.822 E.01851
G1 X116.605 Y105.032 E.03685
G1 X116.635 Y105.624 E.01956
G1 X117.394 Y106.383 E.03543
G1 X117.394 Y106.944 E.01851
G1 X116.709 Y106.259 E.03197
G1 X116.777 Y106.694 E.01453
G1 X116.845 Y106.957 E.00897
G1 X117.393 Y107.505 E.02558
G1 X117.393 Y108.066 E.01851
G1 X116.806 Y107.479 E.0274
M204 S1000
;WIPE_START
G1 F8640
G1 X117.393 Y108.066 E-.19168
G1 X117.393 Y107.505 E-.12954
G1 X116.845 Y106.957 E-.17895
G1 X116.777 Y106.694 E-.06272
G1 X116.709 Y106.259 E-.10166
G1 X117.394 Y106.944 E-.22368
G1 X117.394 Y106.46 E-.11177
;WIPE_END
G1 Z.4 F720
G1 X123.74 Y96.533 F10800
G1 Z.2 F720
G1 E1 F2100
M204 S800
;WIDTH:0.435539
G1 F1200
G1 X123.998 Y96.791 E.01191
G1 X123.646 Y96.994 E.01327
G1 X123.416 Y96.765 E.0106
G1 X122.957 Y96.861 E.01531
G1 X123.294 Y97.198 E.01556
G1 X122.943 Y97.401 E.01324
G1 X122.527 Y96.986 E.01918
G1 X122.109 Y97.123 E.01436
G1 X122.591 Y97.605 E.02225
G1 X122.239 Y97.808 E.01327
G1 X121.714 Y97.283 E.02424
G1 X121.329 Y97.454 E.01375
G1 X121.887 Y98.012 E.02576
G1 X121.536 Y98.215 E.01324
M73 Q18 S2
G1 X120.967 Y97.647 E.02625
G1 X120.611 Y97.846 E.01331
G1 X121.184 Y98.419 E.02645
G1 X120.832 Y98.622 E.01327
G1 X120.279 Y98.069 E.02553
M73 P18 R2
G1 X119.96 Y98.284 E.01256
G1 X119.948 Y98.294 E.00051
G1 X120.48 Y98.826 E.02456
G1 X120.129 Y99.029 E.01324
G1 X119.645 Y98.546 E.02232
G1 X119.343 Y98.799 E.01286
G1 X119.777 Y99.233 E.02004
G1 X119.425 Y99.436 E.01327
G1 X119.064 Y99.075 E.01667
G1 X118.79 Y99.357 E.01284
G1 X119.073 Y99.64 E.01307
G1 X118.721 Y99.843 E.01327
G1 X118.535 Y99.656 E.00861
G1 X118.289 Y99.966 E.01292
G1 X118.494 Y100.171 E.00946
M204 S1000
;WIPE_START
G1 F8640
G1 X118.289 Y99.966 E-.06694
